X: 1
T:Fairhaired Boy, The
T:Micho Russell's
R:reel
D:Four Men and a Dog: Shifting Gravel
D:Matt Molloy, Sean Keane, Liam O'Flynn: The Fire Aflame
Z:id:hn-reel-524
M:C|
K:D
~A3G FGAB|=cAdc BGGB|ABAG F2eg|1 fde^c AddB:|2 fde^c Adde||
f2df efde|f2df ecAe|f2df efde|fde^c Adde|
f2df efde|f2df ecAG|ABcd efge|ageg fddB||
